public/invoice.svg

<!DOCTYPE svg PUBLIC "-//W3C//DTD SVG 1.1//EN" "http://www.w3.org/Graphics/SVG/1.1/DTD/svg11.dtd">
<!-- Uploaded to: SVG Repo, www.svgrepo.com, Transformed by: SVG Repo Mixer Tools -->
<svg width="64px" height="64px" viewBox="0 0 24 24" fill="none" xmlns="http://www.w3.org/2000/svg">
<g id="SVGRepo_bgCarrier" stroke-width="0"/>
<g id="SVGRepo_tracerCarrier" stroke-linecap="round" stroke-linejoin="round"/>
<g id="SVGRepo_iconCarrier"> <g clip-path="url(#clip0_429_11099)"> <path d="M5 3H19V21L17.9682 20.1156C17.2193 19.4737 16.1141 19.4737 15.3651 20.1156L14.3333 21L13.3016 20.1156C12.5526 19.4737 11.4474 19.4737 10.6984 20.1156L9.66667 21L8.63492 20.1156C7.88594 19.4737 6.78073 19.4737 6.03175 20.1156L5 21V3Z" stroke="#ffffff" stroke-width="2.5" stroke-linecap="round" stroke-linejoin="round"/> <path d="M15 7L9 7" stroke="#ffffff" stroke-width="2.5" stroke-linecap="round" stroke-linejoin="round"/> <path d="M15 11L9 11" stroke="#ffffff" stroke-width="2.5" stroke-linecap="round" stroke-linejoin="round"/> <path d="M15 15L11 15" stroke="#ffffff" stroke-width="2.5" stroke-linecap="round" stroke-linejoin="round"/> </g> <defs> <clipPath id="clip0_429_11099"> <rect width="24" height="24" fill="white"/> </clipPath> </defs> </g>
</svg>

<svg xmlns="http://www.w3.org/2000/svg" width="64" height="64" fill="none" viewBox="0 0 24 24"><g stroke="#fff" stroke-linecap="round" stroke-linejoin="round" stroke-width="2.5" clip-path="url(#a)"><path d="M5 3h14v18l-1.032-.884a2 2 0 0 0-2.603 0L14.333 21l-1.031-.884a2 2 0 0 0-2.604 0L9.667 21l-1.032-.884a2 2 0 0 0-2.603 0L5 21zM15 7H9M15 11H9M15 15h-4"/></g><defs><clipPath id="a"><path fill="#fff" d="M0 0h24v24H0z"/></clipPath></defs></svg>
